svg/azure-postgres.svg

<?xml version="1.0" encoding="UTF-8"?>
<svg xmlns="http://www.w3.org/2000/svg" xmlns:xlink="http://www.w3.org/1999/xlink" width="32" height="32" viewBox="0 0 32 32">
<defs>
<linearGradient id="linear-pattern-0" gradientUnits="userSpaceOnUse" x1="2.44" y1="10.67" x2="15.27" y2="10.67" gradientTransform="matrix(1.777778, -0.00266842, 0.00266842, 1.777778, 2.183874, -7.63199)">
<stop offset="0" stop-color="rgb(0%, 35.686275%, 63.137255%)" stop-opacity="1"/>
<stop offset="0.07" stop-color="rgb(0%, 37.647059%, 66.27451%)" stop-opacity="1"/>
<stop offset="0.36" stop-color="rgb(0%, 44.313725%, 78.431373%)" stop-opacity="1"/>
<stop offset="0.52" stop-color="rgb(0%, 47.058824%, 83.137255%)" stop-opacity="1"/>
<stop offset="0.64" stop-color="rgb(0%, 45.490196%, 80.392157%)" stop-opacity="1"/>
<stop offset="0.82" stop-color="rgb(0%, 41.568627%, 73.333333%)" stop-opacity="1"/>
<stop offset="1" stop-color="rgb(0%, 35.686275%, 63.137255%)" stop-opacity="1"/>
</linearGradient>
</defs>
<path fill-rule="nonzero" fill="url(#linear-pattern-0)" d="M 16 9.136719 C 9.707031 9.136719 4.605469 7.359375 4.605469 5.011719 L 4.605469 26.988281 C 4.605469 29.246094 9.617188 31.074219 15.839844 31.109375 L 16 31.109375 C 22.292969 31.109375 27.394531 29.332031 27.394531 26.988281 L 27.394531 5.011719 C 27.394531 7.289062 22.292969 9.136719 16 9.136719 "/>
<path fill-rule="nonzero" fill="rgb(90.980392%, 90.980392%, 90.980392%)" fill-opacity="1" d="M 27.394531 5.011719 C 27.394531 7.289062 22.292969 9.136719 16 9.136719 C 9.707031 9.136719 4.605469 7.359375 4.605469 5.011719 C 4.605469 2.667969 9.707031 0.890625 16 0.890625 C 22.292969 0.890625 27.394531 2.667969 27.394531 5.007812 "/>
<path fill-rule="nonzero" fill="rgb(31.372549%, 90.196078%, 100%)" fill-opacity="1" d="M 24.730469 4.675781 C 24.730469 6.132812 20.816406 7.308594 16 7.308594 C 11.183594 7.308594 7.253906 6.132812 7.253906 4.691406 C 7.253906 3.253906 11.164062 2.0625 16 2.0625 C 20.835938 2.0625 24.730469 3.234375 24.730469 4.675781 "/>
<path fill-rule="nonzero" fill="rgb(9.803922%, 54.117647%, 70.196078%)" fill-opacity="1" d="M 16 5.332031 C 13.648438 5.273438 11.304688 5.617188 9.066406 6.347656 C 11.304688 7.0625 13.652344 7.386719 16 7.308594 C 18.347656 7.363281 20.683594 7.015625 22.914062 6.277344 C 20.675781 5.582031 18.339844 5.261719 16 5.332031 "/>
<path fill-rule="nonzero" fill="rgb(94.901961%, 94.901961%, 94.901961%)" fill-opacity="1" d="M 21.332031 16 L 21.332031 16.746094 C 21.261719 17.117188 21.214844 17.492188 21.191406 17.867188 C 21.191406 18.078125 21.191406 18.398438 21.28125 18.683594 C 21.367188 18.96875 21.28125 19.164062 21.28125 19.324219 C 21.273438 19.863281 21.121094 20.394531 20.835938 20.851562 C 20.832031 20.894531 20.832031 20.933594 20.835938 20.976562 L 21.011719 21.191406 C 21.8125 19.863281 22.445312 18.441406 22.898438 16.960938 C 23.394531 15.269531 23.449219 14.0625 23.058594 13.546875 C 21.910156 12.140625 20.042969 11.542969 18.292969 12.019531 C 18.894531 12.320312 19.441406 12.722656 19.910156 13.207031 C 20.738281 13.910156 21.25 14.917969 21.332031 16 M 20.78125 16.140625 C 20.308594 16.027344 19.8125 16.082031 19.378906 16.300781 C 18.863281 16.621094 19.023438 17.28125 19.378906 18.078125 C 19.554688 18.59375 19.761719 19.097656 20 19.589844 L 20.160156 19.875 C 20.25 20.019531 20.300781 20.140625 20.355469 20.230469 L 20.496094 20.460938 C 20.707031 20.113281 20.816406 19.714844 20.816406 19.308594 C 20.828125 19.109375 20.828125 18.914062 20.816406 18.71875 C 20.816406 18.417969 20.816406 18.078125 20.730469 17.847656 C 20.753906 17.4375 20.800781 17.027344 20.871094 16.621094 C 20.832031 16.445312 20.824219 16.265625 20.851562 16.089844 Z M 20.25 16.871094 C 20.160156 16.957031 20.050781 17.019531 19.929688 17.050781 C 19.847656 17.066406 19.761719 17.066406 19.679688 17.050781 C 19.589844 16.960938 19.542969 16.835938 19.554688 16.710938 C 19.554688 16.585938 19.75 16.480469 19.980469 16.445312 L 20.320312 16.445312 C 20.320312 16.445312 20.480469 16.445312 20.480469 16.585938 C 20.460938 16.679688 20.402344 16.765625 20.320312 16.816406 Z M 11.910156 18.453125 L 11.910156 18.152344 C 11.917969 18.050781 11.917969 17.949219 11.910156 17.847656 C 11.859375 17.257812 11.859375 16.660156 11.910156 16.070312 C 12.015625 15.402344 12.195312 14.746094 12.445312 14.117188 C 12.652344 13.488281 13.007812 12.914062 13.476562 12.445312 C 12.695312 12.210938 11.886719 12.09375 11.074219 12.089844 C 10.382812 12.058594 9.699219 12.242188 9.121094 12.621094 C 8.21875 13.4375 7.796875 14.660156 8 15.859375 C 8.171875 17.210938 8.46875 18.542969 8.890625 19.839844 C 9.492188 21.867188 10.1875 23.109375 10.792969 23.308594 C 11.058594 23.394531 11.34375 23.308594 11.625 22.933594 C 12.125 22.328125 12.585938 21.8125 12.851562 21.511719 C 12.046875 20.691406 11.71875 19.519531 11.980469 18.398438 Z M 12.375 19.164062 C 12.367188 19.5 12.402344 19.835938 12.480469 20.160156 C 12.589844 20.445312 12.746094 20.707031 12.941406 20.941406 C 13.117188 21.132812 13.328125 21.28125 13.5625 21.386719 C 13.785156 21.476562 14.019531 21.523438 14.257812 21.527344 C 14.257812 21.226562 14.507812 20.851562 14.667969 20.460938 C 14.816406 20.121094 14.941406 19.769531 15.039062 19.414062 C 15.09375 18.757812 15.09375 18.097656 15.039062 17.441406 C 15.039062 17.28125 15.039062 17.101562 14.933594 16.90625 C 14.917969 16.726562 14.84375 16.558594 14.71875 16.425781 C 14.578125 16.292969 14.410156 16.195312 14.222656 16.140625 L 13.867188 16.140625 C 13.570312 16.179688 13.28125 16.261719 13.011719 16.390625 C 12.8125 16.484375 12.625 16.597656 12.445312 16.730469 L 12.445312 18.007812 C 12.453125 18.097656 12.453125 18.1875 12.445312 18.277344 L 12.445312 18.96875 Z M 13.546875 16.78125 C 13.707031 16.730469 13.882812 16.730469 14.042969 16.78125 C 14.160156 16.796875 14.277344 16.835938 14.382812 16.890625 C 14.542969 16.890625 14.558594 17.085938 14.542969 17.136719 C 14.492188 17.230469 14.417969 17.308594 14.328125 17.367188 C 14.289062 17.347656 14.253906 17.324219 14.222656 17.296875 C 13.96875 17.253906 13.769531 17.054688 13.722656 16.800781 Z M 14.863281 22.117188 C 14.777344 22.125 14.695312 22.164062 14.632812 22.222656 L 14.382812 22.523438 C 14.078125 22.898438 13.957031 23.023438 13.085938 23.199219 C 12.917969 23.214844 12.757812 23.277344 12.621094 23.378906 C 12.746094 23.476562 12.894531 23.542969 13.050781 23.574219 C 13.464844 23.707031 13.914062 23.707031 14.328125 23.574219 C 14.582031 23.453125 14.8125 23.296875 15.023438 23.109375 C 15.195312 22.96875 15.320312 22.773438 15.378906 22.558594 C 15.394531 22.375 15.328125 22.195312 15.199219 22.0625 C 15.125 22.003906 15.023438 21.988281 14.933594 22.027344 Z M 23.058594 22.117188 C 22.410156 22.355469 21.699219 22.355469 21.050781 22.117188 C 20.96875 22.089844 20.882812 22.089844 20.800781 22.117188 C 20.671875 22.15625 20.5625 22.246094 20.496094 22.363281 C 20.472656 22.546875 20.472656 22.730469 20.496094 22.914062 C 21.152344 23.0625 21.835938 23 22.453125 22.738281 C 22.777344 22.601562 23.070312 22.394531 23.308594 22.132812 Z M 18.792969 18.3125 C 18.542969 17.582031 18.1875 16.535156 19.109375 15.894531 C 19.589844 15.625 20.148438 15.53125 20.691406 15.625 C 20.460938 14.871094 20.074219 14.175781 19.554688 13.582031 L 19.269531 13.296875 C 19.238281 13.257812 19.203125 13.222656 19.164062 13.191406 C 18.8125 12.875 18.410156 12.625 17.972656 12.445312 C 17.351562 12.171875 16.679688 12.039062 16 12.054688 C 15.574219 12.019531 15.148438 12.085938 14.753906 12.25 C 14.570312 12.296875 14.394531 12.363281 14.222656 12.445312 C 13.613281 12.890625 13.15625 13.511719 12.90625 14.222656 C 12.730469 14.804688 12.605469 15.398438 12.535156 16 C 13.070312 15.679688 13.691406 15.535156 14.3125 15.589844 C 14.710938 15.621094 15.078125 15.808594 15.335938 16.113281 C 15.589844 16.417969 15.714844 16.8125 15.679688 17.207031 C 15.746094 17.957031 15.746094 18.714844 15.679688 19.464844 C 15.578125 19.851562 15.441406 20.226562 15.269531 20.585938 C 15.164062 20.890625 15.023438 21.207031 14.949219 21.457031 C 15.199219 21.441406 15.445312 21.535156 15.625 21.707031 C 15.875 21.953125 16 22.300781 15.964844 22.648438 L 16 22.648438 L 16 23.074219 C 15.867188 24.535156 16.011719 26.007812 16.425781 27.414062 C 16.527344 27.578125 16.675781 27.707031 16.851562 27.785156 C 17.015625 27.894531 17.207031 27.957031 17.40625 27.964844 C 18.058594 28.023438 18.703125 27.804688 19.183594 27.359375 C 19.488281 27.042969 19.667969 26.625 19.699219 26.1875 C 19.820312 25.386719 20.089844 23.164062 20.125 22.632812 C 20.09375 22.359375 20.148438 22.085938 20.285156 21.847656 C 20.402344 21.664062 20.566406 21.515625 20.765625 21.421875 C 19.925781 20.484375 19.277344 19.390625 18.863281 18.203125 Z M 18.792969 18.3125 "/>
</svg>

<svg role="img" viewBox="0 0 32 32" xmlns="http://www.w3.org/2000/svg"><defs><linearGradient gradientTransform="rotate(-.086 -5083.573 -1458.785)scale(1.77778)" gradientUnits="userSpaceOnUse" id="azure-postgres_svg__a" x1="2.44" x2="15.27" y1="10.67" y2="10.67"><stop offset="0" stop-color="rgb(0%, 35.686275%, 63.137257%)"/><stop offset=".07" stop-color="rgb(0%, 37.64706%, 66.274512%)"/><stop offset=".36" stop-color="rgb(0%, 44.313726%, 78.431374%)"/><stop offset=".52" stop-color="rgb(0%, 47.058824%, 83.137256%)"/><stop offset=".64" stop-color="rgb(0%, 45.490196%, 80.392158%)"/><stop offset=".82" stop-color="rgb(0%, 41.568628%, 73.333335%)"/><stop offset="1" stop-color="rgb(0%, 35.686275%, 63.137257%)"/></linearGradient></defs><path d="M16 9.137c-6.293 0-11.395-1.778-11.395-4.125v21.976c0 2.258 5.012 4.086 11.235 4.121H16c6.293 0 11.395-1.777 11.395-4.12V5.011c0 2.277-5.102 4.125-11.395 4.125" fill="url(#azure-postgres_svg__a)"/><path d="M27.395 5.012c0 2.277-5.102 4.125-11.395 4.125S4.605 7.359 4.605 5.012C4.605 2.668 9.707.89 16 .89s11.395 1.777 11.395 4.117" fill="rgb(90.980393%, 90.980393%, 90.980393%)"/><path d="M24.73 4.676c0 1.457-3.914 2.633-8.73 2.633S7.254 6.133 7.254 4.69c0-1.437 3.91-2.628 8.746-2.628s8.73 1.171 8.73 2.613" fill="rgb(31.37255%, 90.196079%, 100%)"/><path d="M16 5.332a20.7 20.7 0 0 0-6.934 1.016 20.6 20.6 0 0 0 6.934.96 20.5 20.5 0 0 0 6.914-1.03A21.2 21.2 0 0 0 16 5.331" fill="rgb(9.803922%, 54.11765%, 70.19608%)"/><path d="M21.332 16v.746q-.105.558-.14 1.121c0 .211 0 .531.09.817.085.285 0 .48 0 .64-.009.54-.16 1.07-.446 1.528a1 1 0 0 0 0 .125l.176.214c.8-1.328 1.433-2.75 1.886-4.23.497-1.691.551-2.898.16-3.414a4.59 4.59 0 0 0-4.765-1.527 5.9 5.9 0 0 1 1.617 1.187A4.07 4.07 0 0 1 21.332 16m-.55.14a2.05 2.05 0 0 0-1.403.16c-.516.321-.356.981 0 1.778q.264.774.621 1.512l.16.285c.09.145.14.266.195.355l.141.23c.211-.347.32-.745.32-1.151q.018-.299 0-.59c0-.301 0-.64-.086-.871q.035-.616.141-1.227a1.4 1.4 0 0 1-.02-.531Zm-.532.731a.7.7 0 0 1-.32.18.7.7 0 0 1-.25 0 .43.43 0 0 1-.125-.34c0-.125.195-.23.425-.266h.34s.16 0 .16.14a.36.36 0 0 1-.16.231Zm-8.34 1.582v-.3a2 2 0 0 0 0-.305c-.05-.59-.05-1.188 0-1.778a9 9 0 0 1 .535-1.953 4.25 4.25 0 0 1 1.032-1.672 8.5 8.5 0 0 0-2.403-.355 3.3 3.3 0 0 0-1.953.531A3.57 3.57 0 0 0 8 15.86c.172 1.352.469 2.684.89 3.98.602 2.028 1.297 3.27 1.903 3.47.266.086.55 0 .832-.375.5-.606.96-1.122 1.227-1.422a3.35 3.35 0 0 1-.872-3.114Zm.465.711c-.008.336.027.672.105.996q.167.429.461.781c.176.192.387.34.621.446.223.09.458.136.696.14 0-.3.25-.675.41-1.066q.223-.511.371-1.047a12 12 0 0 0 0-1.973c0-.16 0-.34-.105-.535a.8.8 0 0 0-.215-.48 1.2 1.2 0 0 0-.496-.285h-.356c-.297.039-.586.12-.855.25q-.298.14-.567.34v1.277q.012.135 0 .27v.69Zm1.172-2.383c.16-.05.336-.05.496 0 .117.016.234.055.34.11.16 0 .176.195.16.246a.64.64 0 0 1-.215.23.5.5 0 0 1-.105-.07.615.615 0 0 1-.5-.496Zm1.316 5.336a.4.4 0 0 0-.23.106l-.25.3c-.305.375-.426.5-1.297.676a.9.9 0 0 0-.465.18c.125.098.274.164.43.195.414.133.863.133 1.277 0q.38-.181.695-.465c.172-.14.297-.336.356-.55a.64.64 0 0 0-.18-.497.26.26 0 0 0-.265-.035Zm8.196 0a2.9 2.9 0 0 1-2.008 0 .4.4 0 0 0-.25 0 .53.53 0 0 0-.305.246 2.2 2.2 0 0 0 0 .551 3.2 3.2 0 0 0 1.957-.176c.324-.136.617-.343.856-.605Zm-4.266-3.805c-.25-.73-.605-1.777.316-2.417.48-.27 1.04-.364 1.582-.27a5.6 5.6 0 0 0-1.136-2.043l-.285-.285a.7.7 0 0 0-.106-.106 4.1 4.1 0 0 0-1.191-.746 4.6 4.6 0 0 0-1.973-.39 2.7 2.7 0 0 0-1.246.195 3 3 0 0 0-.531.195 3.73 3.73 0 0 0-1.317 1.778q-.265.874-.37 1.777a2.96 2.96 0 0 1 1.777-.41 1.5 1.5 0 0 1 1.023.523c.254.305.379.7.344 1.094a13 13 0 0 1 0 2.258 6.3 6.3 0 0 1-.41 1.12c-.106.306-.247.622-.32.872a.9.9 0 0 1 .675.25c.25.246.375.594.34.941H16v.426a11.6 11.6 0 0 0 .426 4.34c.101.164.25.293.426.371.164.11.355.172.554.18a2.3 2.3 0 0 0 1.778-.606c.304-.316.484-.734.515-1.172.121-.8.39-3.023.426-3.554a1.28 1.28 0 0 1 .16-.785 1.15 1.15 0 0 1 .48-.426 9.5 9.5 0 0 1-1.902-3.219Zm0 0" fill="rgb(94.901961%, 94.901961%, 94.901961%)"/></svg>
